public/wallet.svg

<svg width="24" height="24" viewBox="0 0 24 24" fill="none" xmlns="http://www.w3.org/2000/svg">
<path d="M16 12C15.4375 12 15 12.4688 15 13C15 13.5625 15.4375 14 16 14C16.5312 14 17 13.5625 17 13C17 12.4688 16.5312 12 16 12ZM18.5 7H18V6.5C18 5.6875 17.3125 5 16.5 5H7C5.3125 5 4 6.34375 4 8V16C4 17.6875 5.3125 19 7 19H18C19.0938 19 20 18.125 20 17V8.5C20 7.6875 19.3125 7 18.5 7ZM19 17C19 17.5625 18.5312 18 18 18H7C5.875 18 5 17.125 5 16V8C5 6.90625 5.875 6 7 6H16.5C16.75 6 17 6.25 17 6.5V7H7.5C7.21875 7 7 7.25 7 7.5C7 7.78125 7.21875 8 7.5 8H18.5C18.75 8 19 8.25 19 8.5V17Z" fill="#1B019A"/>
</svg>

<svg width="24" height="24" fill="none" xmlns="http://www.w3.org/2000/svg"><path d="M16 12c-.563 0-1 .469-1 1 0 .563.438 1 1 1 .531 0 1-.438 1-1 0-.531-.469-1-1-1zm2.5-5H18v-.5c0-.813-.688-1.5-1.5-1.5H7a2.98 2.98 0 00-3 3v8c0 1.688 1.313 3 3 3h11c1.094 0 2-.875 2-2V8.5c0-.813-.688-1.5-1.5-1.5zm.5 10c0 .563-.469 1-1 1H7c-1.125 0-2-.875-2-2V8c0-1.094.875-2 2-2h9.5c.25 0 .5.25.5.5V7H7.5c-.281 0-.5.25-.5.5 0 .281.219.5.5.5h11c.25 0 .5.25.5.5V17z" fill="#1F4C7A"/></svg>
